!!!COM:	Bach, Johann Sebastian
!!!CDT:	1685/02/21/-1750/07/28/
!!!OTL@@DE:	Freuet euch, ihr Christen alle
!!!SCT:	BWV 40/8
!!!PC#:	8
!!!AGN:	chorale
**kern	**kern	**kern	**kern
*ICvox	*ICvox	*ICvox	*ICvox
*Ibass	*Itenor	*Ialto	*Isoprn
*I"Bass	*I"Tenor	*I"Alto	*I"Soprano
*clefF4	*clefGv2	*clefG2	*clefG2
*k[b-e-a-]	*k[b-e-a-]	*k[b-e-a-]	*k[b-e-a-]
*f:dor	*f:dor	*f:dor	*f:dor
*M4/4	*M4/4	*M4/4	*M4/4
*met(c)	*met(c)	*met(c)	*met(c)
*MM100	*MM100	*MM100	*MM100
=1-	=1-	=1-	=1-
4F	4A-	4f	4cc
4E-	4A	4f	4cc
4D-	4B-	8fL	4b-
.	.	8eJ	.
4C	4c	4f	4a-
=2	=2	=2	=2
4BB-	4d-	8fL	4.g
.	.	8gJ	.
4C	8cL	4e	.
.	8B-J	.	8f
4FF	4A-	4f	4f
4FF;	4A-;	4c;	4f;
=3	=3	=3	=3
4F	4.c	4.f	4.a-
8E-L	.	.	.
8D-J	8B-	8g	8b-
8CL	4e-	4a-	4cc
8BB-J	.	.	.
4AA-	4e-	4a-	4cc
=4	=4	=4	=4
4D-	4f	8a-L	4.b-
.	.	8fJ	.
4E-	8e-L	4g	.
.	8d-XJ	.	8a-
2AA-;	2c;	2e-;	2a-;
=5	=5	=5	=5
4D-	4d-	4f	4a-
8CL	4d-	4g	4b-
8BB-J	.	.	.
4C	4G	4e	4b-
4D-	8FL	4f	4a-
.	8A-J	.	.
=6	=6	=6	=6
4BB-	4d-	4f	4.g
4C	8cL	4e	.
.	8B-J	.	8f
2FF;	2A-;	2c;	2f;
=7	=7	=7	=7
8FL	8AL	4f	4cc
8G	8B-J	.	.
8A	8cL	4f	4cc
8FJ	8AJ	.	.
8BB-L	4B-	4f	4dd-
8C	.	.	.
8D-	4B-	4f	4dd-
8BB-J	.	.	.
=8	=8	=8	=8
8E-L	4B-	8gL	4b-
8F	.	8a-XJ	.
8G	4e-	8b-L	4b-
8E-J	.	8gJ	.
4A-	4e-	4a-	4cc
4A-;	4e-;	4a-;	4cc;
=9	=9	=9	=9
8D-L	4d-	4f	4a-
8E-	.	.	.
8F	4d-	4f	4a-
8D-J	.	.	.
8BB-L	4f	4b-	4dd-
8C	.	.	.
8D-	4f	4b-	4dd-
8BB-J	.	.	.
=10	=10	=10	=10
8E-L	4g-	4b-	4cc
8CJ	.	.	.
4F	8fL	4a	4cc
.	8e-J	.	.
2BB-;	2d-;	2f;	2b-;
=11	=11	=11	=11
4B-	4c	4e	4g
4A-	4c	4f	4a-X
4G	4B-	8fL	4b-
.	.	8eJ	.
4F	4c	4f	4a-
=12	=12	=12	=12
4BB-	4d-	4f	4g
4C	8cL	4e	4g
.	8B-J	.	.
2FF;	2A-;	2c;	2f;
=13	=13	=13	=13
8FFL	4c	4a-	4ff
8GG	.	.	.
8AA-	4c	4a-	4ff
8BB-J	.	.	.
8CL	4c	4g	4ee-X
8D	.	.	.
8E-	4c	4g	4ee-
8FJ	.	.	.
=14	=14	=14	=14
4G	4c	8gL	4dd
.	.	8a-J	.
4GG	4B	8gL	4dd
.	.	8fJ	.
4C	4c	4e	4cc
4C;	4G;	4e;	4cc;
=15	=15	=15	=15
8FL	4A	4f	4cc
8E-	.	.	.
8D-	4A	4f	4cc
8CJ	.	.	.
4BB-	4B-	8fL	4dd-
.	.	8gJ	.
8CL	4E-	4a-	4cc
8D-J	.	.	.
=16	=16	=16	=16
4E-	4.e-	8a-L	4.b-
.	.	8fJ	.
4E-	.	4g	.
.	8d-	.	8a-
4AA-	4c	4e-	4a-
4AA-;	4c;	4e-;	4a-;
=17	=17	=17	=17
8D-L	4d-	4f	4a-
8E-	.	.	.
8D-	4d-	4f	4a-
8CJ	.	.	.
8BB-L	4f	4b-	4dd-
8C	.	.	.
8D-	4f	4b-	4dd-
8BB-J	.	.	.
=18	=18	=18	=18
8E-L	4e-	4g	4b-
8F	.	.	.
8E-	4e-	4g	4b-
8D-J	.	.	.
8CL	4g	4cc	4ee-
8D-	.	.	.
8E-	4g	4cc	4ee-
8CJ	.	.	.
=19	=19	=19	=19
8FL	4f	8a-L	4cc
8E	.	8gJ	.
8F	4f	8a-L	4cc
8GJ	.	8b-J	.
8A-L	4c	4cc	4ff
8G	.	.	.
8A-	4F	8b-L	4ff
8B-J	.	8a-J	.
=20	=20	=20	=20
4c	4c	4g	4ee
4C	4c	4g	4ee
4F	4c	4a	4ff
4F;	4c;	4a;	4ff;
==	==	==	==
*-	*-	*-	*-
!!!hum2abc: -Q ''
!!!title: @{PC#}. @{OTL@@DE}
!!!YOR1: 371 vierstimmige Choralges&auml;nge von Johann Sebastian Bach, 
!!!YOR2: 4th ed. by Alfred D&ouml;rffel (Leipzig: Breitkopf und H&auml;rtel, 
!!!YOR2: c.1875). 178 pp. Plate "V.A.10".  reprint: J.S. Bach, 371 Four-Part 
!!!YOR4: Chorales (New York: Associated Music Publishers, Inc., c.1940).
!!!SMS: B&H, 4th ed, Alfred D&ouml;rffel, c.1875, plate V.A.10
!!!EED:  Craig Stuart Sapp
!!!EEV:  2009/05/22
